images/standarts/standart-15.svg

<svg width="25" height="24" viewBox="0 0 25 24" fill="none" xmlns="http://www.w3.org/2000/svg">
<g clip-path="url(#clip0_68_4562)">
<path d="M19.7256 17.3802L19.659 17.1582L19.5258 16.8028L19.437 16.5807L19.1927 16.1365L18.8594 15.7145L18.4153 15.3148L17.9045 14.8483L17.4825 14.4486L17.0828 14.0043L16.7496 13.5602L16.4387 13.0939L16.1056 12.472L15.9056 12.05L15.6613 11.5835L15.3503 11.0727L14.9951 10.6063L14.7508 10.362L14.5065 10.1399L14.1733 9.89564L13.7736 9.71794L13.2628 9.54025L12.7519 9.47363H12.2189L11.708 9.54025L10.9752 9.80671L10.2644 10.2953L9.79794 10.7618L9.50932 11.2059L9.22055 11.7167L8.84301 12.4941L8.48763 13.1826L8.08794 13.7156L7.59933 14.3375L6.15564 15.67L6.02241 15.7811L5.68933 16.2475L5.42287 16.7805L5.26733 17.4468L5.17856 18.0465L5.15625 18.7128L5.22287 19.157L5.42287 19.7788L5.71148 20.3562L6.02241 20.7561L6.42226 21.1558L6.9552 21.5112L7.57706 21.7999L8.04354 21.911L8.75432 21.9332L9.44277 21.7776L9.86479 21.5778L10.0423 21.4445L10.4422 21.2224L10.8197 21.0004L11.1528 20.8005L11.5082 20.645L11.7969 20.5118L12.13 20.4228L12.4854 20.4007L12.9074 20.4673L13.2184 20.5339L13.7291 20.7782L14.351 21.0891L14.8619 21.4224L15.3282 21.6888L15.7947 21.8887L16.2389 21.9776L16.6164 21.9998L16.9273 21.9776L17.4159 21.8442L18.0378 21.5556L18.4819 21.2447L18.9484 20.7782L19.2815 20.3341L19.5703 19.7344L19.748 19.157L19.8146 18.6684V18.1576L19.7923 17.8688L19.7256 17.3802Z" fill="white"/>
<path d="M15.925 2.0183C17.2423 2.15773 18.1492 3.79354 17.9506 5.6721C17.7518 7.55066 16.5227 8.96059 15.2052 8.82115C13.8879 8.68188 12.981 7.04591 13.1796 5.16735C13.3784 3.2888 14.6075 1.87886 15.925 2.0183Z" fill="white"/>
<path d="M11.7825 5.15854C11.9812 7.0371 11.0743 8.67306 9.7569 8.81234C8.43945 8.95177 7.21047 7.54185 7.0117 5.66329C6.81294 3.78473 7.71982 2.14893 9.03728 2.00949C10.3547 1.87022 11.5839 3.28014 11.7825 5.15854Z" fill="white"/>
<path d="M20.7491 7.40158C22.0422 7.68958 22.7597 9.40812 22.3518 11.2399C21.9437 13.0717 20.5647 14.3233 19.2716 14.0352C17.9787 13.7472 17.2611 12.0287 17.6691 10.1969C18.077 8.36515 19.4562 7.11357 20.7491 7.40158Z" fill="white"/>
<path d="M7.29701 10.196C7.70491 12.0278 6.98748 13.7463 5.69436 14.0343C4.40138 14.3223 3.02246 13.0707 2.6144 11.2389C2.2065 9.4071 2.92393 7.68857 4.21689 7.4006C5.50999 7.1126 6.88895 8.36421 7.29701 10.196Z" fill="white"/>
</g>
<defs>
<clipPath id="clip0_68_4562">
<rect width="24" height="24" fill="white" transform="translate(0.5)"/>
</clipPath>
</defs>
</svg>

<svg width="25" height="24" fill="none" xmlns="http://www.w3.org/2000/svg"><g clip-path="url(#clip0_68_4562)" fill="#fff"><path d="M19.726 17.38l-.067-.222-.133-.355-.089-.222-.244-.444-.334-.423-.444-.4-.51-.466-.422-.4-.4-.444-.333-.444-.311-.466-.333-.622-.2-.422-.245-.466-.31-.511-.356-.467-.244-.244-.244-.222-.334-.244-.4-.178-.51-.178-.511-.066h-.533l-.511.066-.733.267-.71.488-.467.467-.289.444-.288.51-.378.778-.355.689-.4.533-.489.622-1.443 1.332-.134.111-.333.466-.266.534-.156.666-.088.6-.023.666.067.444.2.622.288.577.311.4.4.4.533.355.622.289.467.111.71.022.689-.155.422-.2.177-.133.4-.223.378-.222.333-.2.355-.155.289-.133.333-.09.355-.021.422.066.311.067.511.244.622.311.51.333.467.267.467.2.444.089.377.022.311-.022.489-.134.622-.288.444-.311.466-.467.334-.444.288-.6.178-.577.067-.489v-.51l-.023-.29-.066-.488zM15.925 2.018c1.317.14 2.224 1.776 2.026 3.654-.2 1.879-1.428 3.289-2.746 3.15-1.317-.14-2.224-1.776-2.025-3.655.198-1.878 1.428-3.288 2.745-3.149zm-4.142 3.141c.198 1.878-.709 3.514-2.026 3.653-1.318.14-2.547-1.27-2.745-3.149-.2-1.878.708-3.514 2.025-3.654 1.318-.139 2.547 1.271 2.745 3.15zm8.967 2.243c1.292.288 2.01 2.006 1.602 3.838-.408 1.832-1.787 3.083-3.08 2.795-1.293-.288-2.01-2.006-1.603-3.838.408-1.832 1.787-3.083 3.08-2.795zM7.297 10.196c.408 1.832-.31 3.55-1.603 3.838-1.293.288-2.672-.963-3.08-2.795-.407-1.832.31-3.55 1.603-3.838 1.293-.288 2.672.963 3.08 2.795z"/></g><defs><clipPath id="clip0_68_4562"><path fill="#fff" transform="translate(.5)" d="M0 0h24v24H0z"/></clipPath></defs></svg>
